;FLAVOR:Marlin
;TIME:59544
;Filament used: 77.8679m
;Layer height: 0.2
;MINX:18.897
;MINY:48.467
;MINZ:0.2
;MAXX:281.103
;MAXY:251.533
;MAXZ:25.8
;TARGET_MACHINE.NAME:Artillery Sidewinder X1
;Generated with Cura_SteamEngine 5.5.0
M140 S60
M105
M190 S60
M104 S200
M105
M109 S200
M82 ;absolute extrusion mode
G28 ; home all axes
 M117 Purge extruder
 G92 E0 ; reset extruder
 G1 Z1.0 F3000 ; move z up little to prevent scratching of surface
 G1 X2 Y20 Z0.3 F5000.0 ; move to start-line position
 G1 X2 Y200.0 Z0.3 F1500.0 E15 ; draw 1st line
 G1 X2 Y200.0 Z0.4 F5000.0 ; move to side a little
 G1 X2 Y20 Z0.4 F1500.0 E30 ; draw 2nd line
 G92 E0 ; reset extruder
 G1 Z1.0 F3000 ; move z up little to prevent scratching of surface
G92 E0
G92 E0
G1 F1500 E-2
;LAYER_COUNT:129
;LAYER:0
M107
G0 F6000 X25.011 Y49.837 Z0.2
;TYPE:SKIRT
G1 F1500 E0
G1 F1200 X25.824 Y49.443 E0.03305
G1 X26.889 Y49.038 E0.07474
G1 X27.835 Y48.775 E0.11066
G1 X28.805 Y48.594 E0.14676
G1 X30.133 Y48.48 E0.19553
G1 X30.74 Y48.467 E0.21774
G1 X268.874 Y48.467 E8.93015
G1 X269.78 Y48.481 E8.9633
G1 X270.797 Y48.546 E9.00058
G1 X271.769 Y48.692 E9.03654
G1 X272.799 Y48.943 E9.07533
G1 X273.729 Y49.259 E9.11127
G1 X274.697 Y49.688 E9.15
G1 X275.588 Y50.181 E9.18726
G1 X276.372 Y50.706 E9.22178
G1 X277.227 Y51.399 E9.26205
G1 X277.957 Y52.108 E9.29928
G1 X278.574 Y52.82 E9.33375
G1 X279.219 Y53.711 E9.37399
G1 X279.683 Y54.487 E9.40707
G1 X280.177 Y55.513 E9.44873
G1 X280.534 Y56.469 E9.48607
G1 X280.806 Y57.452 E9.52338
G1 X280.972 Y58.34 E9.55643
G1 X281.09 Y59.703 E9.60649
G1 X281.103 Y60.337 E9.62969
G1 X281.102 Y239.401 E16.18095
G1 X281.09 Y240.188 E16.20975
G1 X281.027 Y241.206 E16.24706
G1 X280.875 Y242.214 E16.28436
G1 X280.666 Y243.093 E16.31741
G1 X280.305 Y244.174 E16.35911
G1 X279.893 Y245.105 E16.39636
G1 X279.4 Y246.002 E16.43381
G1 X278.83 Y246.847 E16.4711
G1 X278.239 Y247.582 E16.5056
G1 X277.478 Y248.372 E16.54573
G1 X276.766 Y248.992 E16.58028
G1 X275.877 Y249.637 E16.62046
G1 X275.068 Y250.121 E16.65495
G1 X274.079 Y250.598 E16.69512
G1 X273.161 Y250.945 E16.73103
G1 X272.14 Y251.23 E16.76981
G1 X271.208 Y251.404 E16.8045
G1 X269.867 Y251.52 E16.85374
G1 X269.233 Y251.533 E16.87694
G1 X30.993 Y251.532 E25.59323
G1 X30.237 Y251.52 E25.62089
G1 X29.218 Y251.457 E25.65824
G1 X28.209 Y251.304 E25.69558
G1 X27.216 Y251.062 E25.73297
G1 X26.323 Y250.761 E25.76745
G1 X25.319 Y250.321 E25.80756
G1 X24.458 Y249.848 E25.8435
G1 X23.61 Y249.28 E25.88084
G1 X22.785 Y248.612 E25.91968
G1 X22.052 Y247.902 E25.95701
G1 X21.387 Y247.132 E25.99424
G1 X20.855 Y246.401 E26.02731
G1 X20.27 Y245.425 E26.06894
G1 X19.875 Y244.612 E26.10201
G1 X19.47 Y243.548 E26.14367
G1 X19.216 Y242.64 E26.17816
G1 X19.02 Y241.587 E26.21735
G1 X18.91 Y240.287 E26.26508
G1 X18.897 Y239.651 E26.28835
G1 X18.898 Y60.524 E32.84192
G1 X18.91 Y59.8 E32.86841
G1 X18.974 Y58.781 E32.90577
G1 X19.127 Y57.772 E32.9431
G1 X19.37 Y56.781 E32.98044
G1 X19.699 Y55.813 E33.01784
G1 X20.112 Y54.881 E33.05514
G1 X20.586 Y54.022 E33.09103
G1 X21.176 Y53.143 E33.12976
G1 X21.768 Y52.409 E33.16426
G1 X22.474 Y51.673 E33.20158
G1 X23.303 Y50.953 E33.24175
G1 X24.034 Y50.422 E33.2748
G1 X25.011 Y49.837 E33.31647
G0 F6000 X25.203 Y50.233
G1 F1200 X26.016 Y49.839 E33.34952
G1 X27.008 Y49.462 E33.38835
G1 X27.916 Y49.208 E33.42284
G1 X28.886 Y49.027 E33.45894
G1 X30.142 Y48.92 E33.50506
G1 X30.749 Y48.907 E33.52728
G1 X268.868 Y48.907 E42.23913
G1 X269.753 Y48.92 E42.27151
G1 X270.732 Y48.981 E42.3074
G1 X271.704 Y49.127 E42.34336
G1 X272.657 Y49.36 E42.37926
G1 X273.587 Y49.676 E42.41519
G1 X274.484 Y50.073 E42.45108
G1 X275.343 Y50.547 E42.48697
G1 X276.127 Y51.072 E42.5215
G1 X276.921 Y51.715 E42.55888
G1 X277.625 Y52.397 E42.59474
G1 X278.218 Y53.079 E42.6278
G1 X278.841 Y53.937 E42.66659
G1 X279.305 Y54.713 E42.69967
G1 X279.765 Y55.668 E42.73846
G1 X280.11 Y56.587 E42.77437
G1 X280.373 Y57.533 E42.81029
G1 X280.539 Y58.421 E42.84334
G1 X280.65 Y59.712 E42.89075
G1 X280.663 Y60.337 E42.91362
G1 X280.662 Y239.395 E49.46466
G1 X280.651 Y240.162 E49.49273
G1 X280.592 Y241.141 E49.52861
G1 X280.447 Y242.112 E49.56453
G1 X280.238 Y242.991 E49.59759
G1 X279.902 Y243.997 E49.63639
G1 X279.507 Y244.894 E49.67225
G1 X279.035 Y245.756 E49.70821
G1 X278.487 Y246.571 E49.74414
G1 X277.896 Y247.306 E49.77864
G1 X277.189 Y248.04 E49.81593
G1 X276.477 Y248.66 E49.85047
G1 X275.651 Y249.259 E49.8878
G1 X274.842 Y249.743 E49.92229
G1 X273.923 Y250.186 E49.95962
G1 X273.005 Y250.533 E49.99552
G1 X272.059 Y250.797 E50.03145
G1 X271.127 Y250.971 E50.06614
G1 X269.858 Y251.08 E50.11274
G1 X269.233 Y251.093 E50.13561
G1 X31 Y251.092 E58.85164
G1 X30.263 Y251.081 E58.87861
G1 X29.283 Y251.022 E58.91453
G1 X28.312 Y250.876 E58.95045
G1 X27.357 Y250.645 E58.9864
G1 X26.464 Y250.344 E59.02088
G1 X25.53 Y249.935 E59.05818
G1 X24.703 Y249.482 E59.09268
G1 X23.855 Y248.914 E59.13002
G1 X23.091 Y248.296 E59.16597
G1 X22.385 Y247.614 E59.20188
G1 X21.743 Y246.873 E59.23775
G1 X21.211 Y246.142 E59.27083
G1 X20.666 Y245.233 E59.30961
G1 X20.271 Y244.42 E59.34268
G1 X19.894 Y243.429 E59.38147
G1 X19.649 Y242.559 E59.41454
G1 X19.453 Y241.506 E59.45372
G1 X19.35 Y240.278 E59.49881
G1 X19.337 Y239.651 E59.52175
G1 X19.338 Y60.531 E66.07507
G1 X19.349 Y59.827 E66.10083
G1 X19.409 Y58.846 E66.13678
G1 X19.555 Y57.876 E66.17267
G1 X19.787 Y56.922 E66.20859
G1 X20.102 Y55.991 E66.24455
G1 X20.498 Y55.093 E66.28046
G1 X20.952 Y54.267 E66.31494
G1 X21.519 Y53.419 E66.35226
G1 X22.086 Y52.714 E66.38536
G1 X22.792 Y51.978 E66.42268
G1 X23.562 Y51.309 E66.46
G1 X24.293 Y50.778 E66.49305
G1 X25.203 Y50.233 E66.53186
G0 F6000 X25.395 Y50.629
G1 F1200 X26.208 Y50.235 E66.56491
G1 X27.127 Y49.886 E66.60088
G1 X27.997 Y49.641 E66.63395
G1 X28.967 Y49.46 E66.67005
G1 X30.151 Y49.36 E66.71352
G1 X30.758 Y49.347 E66.73573
G1 X268.862 Y49.347 E75.44704
G1 X269.726 Y49.359 E75.47865
G1 X270.667 Y49.416 E75.51314
G1 X271.6 Y49.555 E75.54766
G1 X272.516 Y49.777 E75.58214
G1 X273.41 Y50.079 E75.61666
G1 X274.272 Y50.459 E75.65113
G1 X275.098 Y50.913 E75.68561
G1 X275.882 Y51.438 E75.72013
G1 X276.615 Y52.031 E75.75463
G1 X277.293 Y52.686 E75.78912
G1 X277.886 Y53.368 E75.82218
G1 X278.463 Y54.163 E75.85812
G1 X278.927 Y54.939 E75.8912
G1 X279.353 Y55.823 E75.9271
G1 X279.686 Y56.705 E75.9616
G1 X279.94 Y57.614 E75.99613
G1 X280.106 Y58.502 E76.02918
G1 X280.21 Y59.721 E76.07394
G1 X280.223 Y60.337 E76.09648
G1 X280.222 Y239.389 E82.6473
G1 X280.212 Y240.136 E82.67464
G1 X280.157 Y241.077 E82.70912
G1 X280.019 Y242.01 E82.74363
G1 X279.81 Y242.889 E82.77668
G1 X279.499 Y243.82 E82.8126
G1 X279.121 Y244.683 E82.84707
G1 X278.669 Y245.511 E82.88158
G1 X278.144 Y246.295 E82.9161
G1 X277.553 Y247.03 E82.95061
G1 X276.9 Y247.708 E82.98504
G1 X276.188 Y248.328 E83.01959
G1 X275.425 Y248.881 E83.05406
G1 X274.616 Y249.365 E83.08855
G1 X273.767 Y249.775 E83.12305
G1 X272.886 Y250.109 E83.15752
G1 X271.978 Y250.364 E83.19202
G1 X271.046 Y250.538 E83.22671
G1 X269.849 Y250.64 E83.27066
G1 X269.233 Y250.653 E83.29321
G1 X31.006 Y250.652 E92.00901
G1 X30.289 Y250.642 E92.03525
G1 X29.348 Y250.587 E92.06973
G1 X28.415 Y250.448 E92.10425
G1 X27.498 Y250.228 E92.13875
G1 X26.605 Y249.927 E92.17323
G1 X25.741 Y249.549 E92.20773
G1 X24.914 Y249.096 E92.24223
G1 X24.131 Y248.571 E92.27672
G1 X23.396 Y247.979 E92.31125
G1 X22.717 Y247.325 E92.34574
G1 X22.099 Y246.614 E92.3802
G1 X21.567 Y245.883 E92.41328
G1 X21.062 Y245.041 E92.4492
G1 X20.667 Y244.228 E92.48227
G1 X20.318 Y243.31 E92.5182
G1 X20.073 Y242.44 E92.55127
G1 X19.891 Y241.469 E92.58741
G1 X19.79 Y240.269 E92.63147
G1 X19.777 Y239.651 E92.65409
G1 X19.778 Y60.537 E99.20718
G1 X19.788 Y59.853 E99.23221
G1 X19.844 Y58.911 E99.26673
G1 X19.983 Y57.979 E99.30121
G1 X20.204 Y57.062 E99.33572
G1 X20.505 Y56.168 E99.37023
G1 X20.884 Y55.305 E99.40471
G1 X21.338 Y54.479 E99.4392
G1 X21.862 Y53.695 E99.4737
G1 X22.429 Y52.99 E99.5068
G1 X23.109 Y52.283 E99.54269
G1 X23.821 Y51.665 E99.57718
G1 X24.552 Y51.134 E99.61024
G1 X25.395 Y50.629 E99.64619
G0 F6000 X25.587 Y51.025
G1 F1200 X26.4 Y50.631 E99.67924
G1 X27.246 Y50.31 E99.71235
G1 X28.116 Y50.065 E99.74542
G1 X29.004 Y49.898 E99.77847
G1 X30.16 Y49.8 E99.82092
G1 X30.767 Y49.787 E99.84313
G1 X268.856 Y49.787 E108.55389
G1 X269.7 Y49.798 E108.58477
G1 X270.603 Y49.851 E108.61787
G1 X271.497 Y49.983 E108.65093
G1 X272.376 Y50.194 E108.684
G1 X273.233 Y50.482 E108.71708
G1 X274.061 Y50.845 E108.75016
G1 X274.854 Y51.279 E108.78323
G1 X275.606 Y51.781 E108.81631
G1 X276.31 Y52.348 E108.84938
G1 X276.961 Y52.975 E108.88245
G1 X277.554 Y53.657 E108.91552
G1 X278.085 Y54.389 E108.9486
G1 X278.549 Y55.165 E108.98168
G1 X278.942 Y55.979 E109.01475
G1 X279.262 Y56.824 E109.04781
G1 X279.507 Y57.695 E109.08091
G1 X279.673 Y58.583 E109.11396
G1 X279.77 Y59.73 E109.15608
G1 X279.783 Y60.337 E109.17829
G1 X279.782 Y239.384 E115.72893
G1 X279.773 Y240.111 E115.75553
G1 X279.722 Y241.013 E115.78858
G1 X279.591 Y241.908 E115.82168
G1 X279.382 Y242.787 E115.85473
G1 X279.096 Y243.644 E115.88779
G1 X278.735 Y244.473 E115.92087
G1 X278.303 Y245.267 E115.95394
G1 X277.801 Y246.02 E115.98705
G1 X277.236 Y246.725 E116.0201
G1 X276.61 Y247.377 E116.05317
G1 X275.929 Y247.972 E116.08626
G1 X275.198 Y248.504 E116.11933
G1 X274.424 Y248.969 E116.15237
G1 X273.61 Y249.364 E116.18547
G1 X272.766 Y249.686 E116.21852
G1 X271.896 Y249.932 E116.2516
G1 X271.008 Y250.1 E116.28466
G1 X269.84 Y250.2 E116.32755
G1 X269.233 Y250.213 E116.34977
G1 X31.012 Y250.212 E125.06535
G1 X30.314 Y250.203 E125.09089
G1 X29.412 Y250.152 E125.12395
G1 X28.517 Y250.02 E125.15705
G1 X27.638 Y249.811 E125.1901
G1 X26.781 Y249.524 E125.22317
G1 X25.952 Y249.163 E125.25625
G1 X25.158 Y248.73 E125.28934
G1 X24.406 Y248.228 E125.32242
G1 X23.701 Y247.662 E125.35549
G1 X23.049 Y247.036 E125.38856
G1 X22.455 Y246.355 E125.42162
G1 X21.923 Y245.624 E125.4547
G1 X21.458 Y244.849 E125.48777
G1 X21.063 Y244.036 E125.52084
G1 X20.742 Y243.191 E125.55391
G1 X20.497 Y242.321 E125.58698
G1 X20.329 Y241.432 E125.62008
G1 X20.23 Y240.26 E125.66311
G1 X20.217 Y239.651 E125.6854
G1 X20.218 Y60.543 E132.23827
G1 X20.227 Y59.878 E132.2626
G1 X20.279 Y58.975 E132.29569
G1 X20.411 Y58.081 E132.32875
G1 X20.621 Y57.202 E132.36182
G1 X20.908 Y56.344 E132.39492
G1 X21.27 Y55.516 E132.42798
G1 X21.704 Y54.723 E132.46105
G1 X22.205 Y53.971 E132.49411
G1 X22.772 Y53.266 E132.52721
G1 X23.398 Y52.615 E132.56026
G1 X24.08 Y52.021 E132.59335
G1 X24.811 Y51.49 E132.6264
G1 X25.587 Y51.025 E132.6595
G1 F1500 E130.6595
;MESH:cepillo1.stl
G0 F6000 X270.216 Y59.354
G0 X270.216 Y240.646
G0 X268.463 Y240.658
G0 X268.463 Y238.893
;TYPE:WALL-INNER
G1 F1500 E132.6595
G1 F1200 X268.463 Y61.107 E139.164
G1 X31.537 Y61.107 E147.83221
G1 X31.537 Y238.893 E154.33672
G1 X268.463 Y238.893 E163.00493
G0 F6000 X268.903 Y239.333
G1 F1200 X268.903 Y60.667 E169.54163
G1 X31.097 Y60.667 E178.24204
G1 X31.097 Y239.333 E184.77874
G1 X268.903 Y239.333 E193.47914
G0 F6000 X269.343 Y239.773
;TYPE:WALL-OUTER
G1 F1200 X269.343 Y60.227 E200.04804
G1 X30.657 Y60.227 E208.78064
G1 X30.657 Y239.773 E215.34954
G1 X269.343 Y239.773 E224.08214
G1 F1500 E222.08214
G0 F6000 X268.067 Y238.497
;TYPE:SKIN
G1 F1500 E224.08214
G1 F1200 X31.933 Y238.497 E232.72137
G1 X31.933 Y61.503 E239.1969
G1 X268.067 Y61.503 E247.83613
G1 X268.067 Y238.497 E254.31166
G1 F1500 E252.31166
G0 F6000 X270.228 Y238.497
G0 X270.228 Y61.88
G0 X267.846 Y61.88
G1 F1500 E254.31166
G1 F1200 X267.689 Y61.723 E254.31979
G0 F6000 X267.067 Y61.723
G1 F1200 X267.846 Y62.502 E254.36009
G0 F6000 X267.846 Y63.124
G1 F1200 X266.444 Y61.723 E254.43261
G0 F6000 X265.822 Y61.723
G1 F1200 X267.846 Y63.747 E254.53733
G0 F6000 X267.846 Y64.369
G1 F1200 X265.2 Y61.723 E254.67423
G0 F6000 X264.578 Y61.723
G1 F1200 X267.846 Y64.991 E254.84332
G0 F6000 X267.846 Y65.613
G1 F1200 X263.955 Y61.723 E255.04462
G0 F6000 X263.333 Y61.723
G1 F1200 X267.846 Y66.236 E255.27813
G0 F6000 X267.846 Y66.858
G1 F1200 X262.711 Y61.723 E255.54381
G0 F6000 X262.089 Y61.723
G1 F1200 X267.846 Y67.48 E255.84168
G0 F6000 X267.846 Y68.102
G1 F1200 X261.466 Y61.723 E256.17176
G0 F6000 X260.844 Y61.723
G1 F1200 X267.846 Y68.725 E256.53405
G0 F6000 X267.846 Y69.347
G1 F1200 X260.222 Y61.723 E256.92852
G0 F6000 X259.6 Y61.723
G1 F1200 X267.846 Y69.969 E257.35518
G0 F6000 X267.846 Y70.591
G1 F1200 X258.977 Y61.723 E257.81404
G0 F6000 X258.355 Y61.723
G1 F1200 X267.846 Y71.214 E258.30511
G0 F6000 X267.846 Y71.836
G1 F1200 X257.733 Y61.723 E258.82836
G0 F6000 X257.111 Y61.723
G1 F1200 X267.846 Y72.458 E259.3838
G0 F6000 X267.846 Y73.08
G1 F1200 X256.488 Y61.723 E259.97144
G0 F6000 X255.866 Y61.723
G1 F1200 X267.846 Y73.703 E260.59129
G0 F6000 X267.846 Y74.325
G1 F1200 X255.244 Y61.723 E261.24333
G0 F6000 X254.622 Y61.723
G1 F1200 X267.846 Y74.947 E261.92755
G0 F6000 X267.846 Y75.569
G1 F1200 X253.999 Y61.723 E262.64397
G0 F6000 X253.377 Y61.723
G1 F1200 X267.846 Y76.192 E263.39261
G0 F6000 X267.846 Y76.814
G1 F1200 X252.755 Y61.723 E264.17343
G0 F6000 X252.133 Y61.723
G1 F1200 X267.846 Y77.436 E264.98643
G0 F6000 X267.846 Y78.058
G1 F1200 X251.51 Y61.723 E265.83164
G0 F6000 X250.888 Y61.723
G1 F1200 X267.846 Y78.681 E266.70905
G0 F6000 X267.846 Y79.303
G1 F1200 X250.266 Y61.723 E267.61865
G0 F6000 X249.644 Y61.723
G1 F1200 X267.846 Y79.925 E268.56044
G0 F6000 X267.846 Y80.547
G1 F1200 X249.021 Y61.723 E269.53443
G0 F6000 X248.399 Y61.723
G1 F1200 X267.846 Y81.17 E270.54063
G0 F6000 X267.846 Y81.792
G1 F1200 X247.777 Y61.723 E271.57901
G0 F6000 X247.155 Y61.723
G1 F1200 X267.846 Y82.414 E272.64958
G0 F6000 X267.846 Y83.036
G1 F1200 X246.532 Y61.723 E273.75235
G0 F6000 X245.91 Y61.723
G1 F1200 X267.846 Y83.659 E274.88733
G0 F6000 X267.846 Y84.281
G1 F1200 X245.288 Y61.723 E276.0545
G0 F6000 X244.666 Y61.723
G1 F1200 X267.846 Y84.903 E277.25384
G0 F6000 X267.846 Y85.525
G1 F1200 X244.043 Y61.723 E278.4854
G0 F6000 X243.421 Y61.723
G1 F1200 X267.846 Y86.148 E279.74917
G0 F6000 X267.846 Y86.77
G1 F1200 X242.799 Y61.723 E281.04511
G0 F6000 X242.177 Y61.723
G1 F1200 X267.846 Y87.392 E282.37324
G0 F6000 X267.846 Y88.014
G1 F1200 X241.554 Y61.723 E283.73358
G0 F6000 X240.932 Y61.723
G1 F1200 X267.846 Y88.637 E285.12613
G0 F6000 X267.846 Y89.259
G1 F1200 X240.31 Y61.723 E286.55086
G0 F6000 X239.687 Y61.723
G1 F1200 X267.846 Y89.881 E288.0078
G0 F6000 X267.846 Y90.504
G1 F1200 X239.065 Y61.723 E289.49694
G0 F6000 X238.443 Y61.723
G1 F1200 X267.846 Y91.126 E291.01827
G0 F6000 X267.846 Y91.748
G1 F1200 X237.821 Y61.723 E292.57179
G0 F6000 X237.198 Y61.723
G1 F1200 X267.846 Y92.37 E294.15751
G0 F6000 X267.846 Y92.993
G1 F1200 X236.576 Y61.723 E295.77544
G0 F6000 X235.954 Y61.723
G1 F1200 X267.846 Y93.615 E297.42555
G0 F6000 X267.846 Y94.237
G1 F1200 X235.332 Y61.723 E299.10784
G0 F6000 X234.709 Y61.723
G1 F1200 X267.846 Y94.859 E300.82235
G0 F6000 X267.846 Y95.482
G1 F1200 X234.087 Y61.723 E302.56906
G0 F6000 X233.465 Y61.723
G1 F1200 X267.846 Y96.104 E304.34795
G0 F6000 X267.846 Y96.726
G1 F1200 X232.843 Y61.723 E306.15903
G0 F6000 X232.22 Y61.723
G1 F1200 X267.846 Y97.348 E308.00232
G0 F6000 X267.846 Y97.971
G1 F1200 X231.598 Y61.723 E309.87781
G0 F6000 X230.976 Y61.723
G1 F1200 X267.846 Y98.593 E311.78549
G0 F6000 X267.846 Y99.215
G1 F1200 X230.354 Y61.723 E313.72535
G0 F6000 X229.731 Y61.723
G1 F1200 X267.846 Y99.837 E315.69742
G0 F6000 X267.846 Y100.46
G1 F1200 X229.109 Y61.723 E317.70169
G0 F6000 X228.487 Y61.723
G1 F1200 X267.846 Y101.082 E319.73815
G0 F6000 X267.846 Y101.704
G1 F1200 X227.865 Y61.723 E321.80679
G0 F6000 X227.242 Y61.723
G1 F1200 X267.846 Y102.326 E323.90764
G0 F6000 X267.846 Y102.949
G1 F1200 X226.62 Y61.723 E326.0407
G0 F6000 X225.998 Y61.723
G1 F1200 X267.846 Y103.571 E328.20595
G0 F6000 X267.846 Y104.193
G1 F1200 X225.376 Y61.723 E330.40337
G0 F6000 X224.753 Y61.723
G1 F1200 X267.846 Y104.815 E332.633
G0 F6000 X267.846 Y105.438
G1 F1200 X224.131 Y61.723 E334.89484
G0 F6000 X223.509 Y61.723
G1 F1200 X267.846 Y106.06 E337.18887
G0 F6000 X267.846 Y106.682
G1 F1200 X222.887 Y61.723 E339.51508
G0 F6000 X222.264 Y61.723
